X: 19
T:A Xeito de Marcha
M:2/4
L:1/8
Q:200
C:Xose Lois Foxo
R:Marcha
K:D
AG FE | DE FG | AG FE | F2D2 | AG FE | DE FG | 
AG FE |1 D4 :|2 D4 |: {A} DE FG | FE D2 | AG FE | F2 DE | FG FE | D2 AG
|
{c}F2 {c} E2 |1 {B} D4 :|2 {B}D4 ||

